X: 12
T: No_20_Doctor's_Song_(a).krn
N: Derived from No_20_Doctor's_Song_(a).krn
%%abc-version 2.0
%%abcx-abcm2ps-target-version 5.9.1 (29 Sep 2008)
%%abc-creator hum2abc beta
%%abcx-conversion-date 2019/03/15 08:26:49
%%humdrum-veritas 2052864485
%%humdrum-veritas-data 2384382261
%%linebreak <none>
%%barnumbers 0
L: 1/8
M: 3/4
K: G clef=bass
[K:clef=bass][M:3/4]G,2A,3/B,/ A,G, ||  
[M:2/4]B,2(3A,B,A,- ||  
[M:3/4]A,7/G,/A,2 ||  
[M:2/4]G,3z ||  
[M:3/4]A,2B,2A,G, ||  
[M:2/4]A,2(3G,A,G,- | 
(G,7/E,/) | 
G,2E,/D,3/- | 
D,2z2 ||  
[M:3/4]E,2D,2C,A,, ||  
[M:2/4]E,2D,2 ||  
[M:3/4]C,4C,A,, ||  
[M:2/4]G,,4 ||  
[M:3/4]G,,2A,,2G,, z ||  
[M:2/4]C,2A,,2 | 
G,,4 | 
G,,4 |]  



